images/icons/mail.svg

<svg width="16" height="16" viewBox="0 0 16 16" fill="none" xmlns="http://www.w3.org/2000/svg">
<path d="M14.5938 1.90625H1.40625C0.631813 1.90625 0 2.53737 0 3.3125V12.6875C0 13.46 0.629 14.0938 1.40625 14.0938H14.5938C15.3663 14.0938 16 13.4648 16 12.6875V3.3125C16 2.54 15.371 1.90625 14.5938 1.90625ZM14.3996 2.84375L8.02981 9.21353L1.60497 2.84375H14.3996ZM0.9375 12.4934V3.50216L5.45247 7.97841L0.9375 12.4934ZM1.60041 13.1562L6.11822 8.63844L7.70125 10.2079C7.8845 10.3896 8.18022 10.389 8.36272 10.2064L9.90625 8.66291L14.3996 13.1562H1.60041ZM15.0625 12.4933L10.5692 8L15.0625 3.50662V12.4933Z" fill="white"/>
</svg>

<svg width="16" height="16" fill="none" xmlns="http://www.w3.org/2000/svg"><path d="M14.594 1.906H1.406C.632 1.906 0 2.537 0 3.313v9.374c0 .773.629 1.407 1.406 1.407h13.188A1.41 1.41 0 0016 12.688V3.312c0-.772-.629-1.406-1.406-1.406zm-.194.938l-6.37 6.37-6.425-6.37H14.4zM.937 12.494V3.501l4.515 4.476-4.514 4.515zm.663.662l4.518-4.518 1.583 1.57a.469.469 0 00.662-.002l1.543-1.543 4.494 4.493H1.6zm13.463-.663L10.569 8l4.493-4.493v8.986z" fill="#fff"/></svg>
